!!!OTL: Das Pathengeschenk.
!!!OTL-incipit: ALS HEINRICH JUNG GEBOREN
!!!ARE: Europa, Mitteleuropa, Deutschland, Niederrhein
!!!SCT: Z1020
!!!TXL: @@DE
!!!YEM: Copyright 1995, estate of Helmut Schaffrath.
**kern	**text
*ICvox	*
*M6/8	*
*k[]	*
*a:	*
!LO:TX:a:t=Vorſänger.	!
!LO:TX:a:t=Vom Niederrhein.	!
{8e	Als
=1	=1
4a	Hein-
8cc	-rich
4b	jung
16ccL	ge-
16bJ	.
=2	=2
(4a	-bo-
16bL	.
16aJ)	.
8g#	-ren,
8r}	.
{16aL	ein
16bJ	.
=3	=3
4cc	Pa-
8cc	-the
8ddL	ward
8ccJ	.
8dd	ge-
=4	=4
4.ee;	-ſucht,
4r}	.
{8e	Als
=5	=5
4a	Hein-
8cc	-rich
4b	jung
16ccL	ge-
16bJ	.
=6	=6
(4a	-bo-
16bL	.
16aJ)	.
8g#	-ren,
8r}	.
{16aL	ein
16bJ	.
=7	=7
4cc	Pa-
8cc	-the
8ddL	ward
8ccJ	.
8dd	ge-
=8	=8
4.ee;	-ſucht,
4r}	.
{8ee	der
=9	=9
4ee	Va-
8dd	-ter
8ff	fand
8ee	auf
8dd	der
=10	=10
4cc	Stra-
16eeL	.
16ddJ	.
4cc}	-ßen
{8cc	wohl
=11	=11
4dd	ei-
8dd	-nen
8eeL	Kna-
8ddJ	.
8cc	-ben
=12	=12
(4b	jung.
16ddL	.
16ccJ	.
4b)}	.
!LO:TX:a:t=Alle.	!
{8ee	Ge-
=13	=13
4dd/	-lobt
8cc/	ſey
4b/	Gott
8a	der
=14	=14
[>4.g#;	Herr,
4g#]}	.
{8e	bis
=15	=15
4a	in
16ee/L	All-
16ddJ	.
8.cc/L	-e-
16ddJ	.
16b/L	-wig-
16ccJ	.
=16	=16
4a	-keit!
8r	.
4r}	.
==	==
!!!AGN: Romanze, Ballade
!!!ONB: ESAC (Essen Associative Code) Database: ZUCCAL
!!!AMT: compound duple
!!!AIN: vox
!!!EED: Helmut Schaffrath
!!!EEV: 1.0
!!@@COMMENT:"In original fragments with three - four voices"
!!@@END:
!!!GTL: I. Volks- Leuschen.
!!!URL-scan: https://www.digitale-sammlungen.de/de/view/bsb11160573?page=54
!!!ENC: Anna Maria Matuszewska
!!!EEV: 2025/03/02
*-	*-
